X: 38636
T: Storm Cloud
R: jig
M: 6/8
K: Ddorian
|:"Dm"dcA cAG|"Dm"~F2 D DFD|"C"FGG GFG|"C"Acc cAc|
"Dm"dcA cAG|"Dm"~F2 D DFD|"C"FGA cAG|"Dm"FDD ~D3:|
K:Dmix
|:"D"def fed|"C"cde edc|"D"def fed|"C"cAG =FDD|
"D"def fed|"C"ceg ~g2 e|"D"fed "C"cAG|"D"Add ~d3:|

